X: 27363
T: Mixing The Porridge
R: slide
M: 12/8
K: Dmajor
|:F2A A2B d2A B2b|a2f d2f e3 efe|
F2A A2B d2A B2b|1 a2f efe d3 d2E:|2 a2f efe d3 efg||
a2d fed a2d g2b|a2d a2f e3 efg|
a2d fed a2d g2b|a2f efe d3 efg|
a2d fed a2d g2b|a2d a2f e3 e3|
D2F A2B d2A B2b|a2f efe d2E||

